X: 65
T: DUKE OF ARGYLE
%R: strathspey
B: Jean White "100 Popular Hornpipes, Reels, Jigs and Country Dances", Boston 1880 p.28
F: http://www.loc.gov/resource/sm1880.09124.0#seq-1
Z: 2014 John Chambers <jc:trillian.mit.edu>
M: C|
L: 1/16
K: F
% - - - - - - - - - - - - - - - - - - - - - - - - - - - - -
AB |\
c3Fd3F c3FB3d | c3F (3A2G2F2 EG3G2 AB |\
c3Fd3F c3FB3d | (3F2G2A2 (3G2A2B2 AF3F2 :|
ag |\
fgag f3c d3ff3g | fgag f3d eg3g3a |\
fgag f3c d3fc3A | (3B2c2d2 G2A2B2 AF3F2 ag |
fgag f3c d3ff3g | fgag f3d eg3g3a |\
a3bg3a f3gd3f | (3B2c2d2 (3G2A2B2 AF3F2 H|]
% - - - - - - - - - - - - - - - - - - - - - - - - - - - - -

%%sep 1 1 500
%%sep 1 1 500
